X: 1
T:Glenburnie Rant
M:4/4
L:1/8
Q:212
Z:Footnote: 16 July 1996
K:E
|:E2EF E2EF|DEFG AFDF|E2EF E2B2|efe^d e2e2|
W: Em D Em B Em
E2EF E2EF|DEFG AFDF|E2EF E2B2|efe^d e2B2|
W: Em D Em B Em
e2ef g2fe|defg afdf|e2ef g2fe|efe^d e2B2|
W: Em D Em B Em
e2ef g2fe|defg afdf|g2ag f2gf|efe^d e2z2:|
W: Em D G D B Em
